icon-themes/sifr_svg/cmd/lc_configuredialog.svg

<svg viewBox="0 0 24 24" xmlns="http://www.w3.org/2000/svg"><path d="m8 3a4 4 0 0 0 -3.9 3h-2.1v2h2.1a4 4 0 0 0 3.9 3 4 4 0 0 0 3.9-3h10.1v-2h-10.1a4 4 0 0 0 -3.9-3zm0 2a2 2 0 0 1 2 2 2 2 0 0 1 -2 2 2 2 0 0 1 -2-2 2 2 0 0 1 2-2zm7.9 8a4 4 0 0 0 -3.8 3h-10.1v2h10.1a4 4 0 0 0 3.9 3 4 4 0 0 0 3.9-3h2.1v-2h-2.1a4 4 0 0 0 -3.9-3 4 4 0 0 0 -.1 0z" fill="#555753"/></svg>

<svg xmlns="http://www.w3.org/2000/svg" viewBox="0 0 24 24">
  <path
     style="fill:#555753"
     d="M 8 3 A 4 4 0 0 0 4.1 6 L 2 6 L 2 8 L 4.1 8 A 4 4 0 0 0 8 11 A 4 4 0 0 0 11.9 8 L 22 8 L 22 6 L 11.9 6 A 4 4 0 0 0 8 3 z M 8 5 A 2 2 0 0 1 10 7 A 2 2 0 0 1 8 9 A 2 2 0 0 1 6 7 A 2 2 0 0 1 8 5 z M 15.9 13 A 4 4 0 0 0 12.1 16 L 2 16 L 2 18 L 12.1 18 A 4 4 0 0 0 16 21 A 4 4 0 0 0 19.9 18 L 22 18 L 22 16 L 19.9 16 A 4 4 0 0 0 16 13 A 4 4 0 0 0 15.9 13 z "
     />
</svg>
